odm/etc/Custom_LUT_hlg.cube
LUT_3D_SIZE 17
0 0 0
0.0322581 0 0.00195503
0.0664712 0 0.00391007
0.101662 0 0.0058651
0.13783 0 0.00782014
0.173998 0 0.00977517
0.210166 0 0.0127077
0.247312 0 0.0146628
0.284457 0 0.0166178
0.326491 0 0.0195503
0.378299 0 0.0224829
0.442815 0 0.026393
0.521017 0 0.0312805
0.617791 0 0.0371457
0.734115 0 0.0439883
0.874878 0 0.0527859
1 0 0.0625611
0 0.0312805 0
0.0312805 0.030303 0
0.0674487 0.0293255 0
0.102639 0.0234604 0.00293255
0.13783 0.00684262 0.0058651
0.173998 0 0.00879765
0.211144 0 0.0107527
0.248289 0 0.0136852
0.285435 0 0.0156403
0.326491 0 0.0185728
0.378299 0 0.0215054
0.442815 0 0.0254154
0.521994 0 0.030303
0.617791 0 0.0361681
0.734115 0 0.0439883
0.874878 0 0.0518084
1 0 0.0625611
0 0.0645161 0
0.0166178 0.0635386 0
0.0654936 0.0635386 0
0.102639 0.0625611 0
0.138807 0.0606061 0
0.174976 0.0557185 0
0.212121 0.0498534 0.0058651
0.248289 0.0391007 0.00977517
0.285435 0.0146628 0.0127077
0.327468 0 0.0156403
0.379277 0 0.0195503
0.443793 0 0.0244379
0.521994 0 0.0293255
0.617791 0 0.0351906
0.734115 0 0.0430108
0.874878 0 0.0518084
1 0 0.0615836
0 0.0977517 0
0 0.0977517 0
0.056696 0.0977517 0
0.0997067 0.0977517 0
0.13783 0.0967742 0
0.175953 0.0948192 0
0.212121 0.0918866 0
0.249267 0.0879765 0
0.286413 0.083089 0.00293255
0.328446 0.0742913 0.00977517
0.380254 0.0596285 0.0156403
0.44477 0 0.0205279
0.522972 0 0.026393
0.618768 0 0.0332356
0.735093 0 0.0410557
0.875855 0 0.0498534
1 0 0.0606061
0 0.132942 0
0 0.132942 0
0.0342131 0.132942 0
0.0928641 0.131965 0
0.134897 0.131965 0
0.173998 0.130987 0
0.212121 0.13001 0
0.250244 0.127077 0
0.28739 0.124145 0
0.329423 0.120235 0
0.381232 0.113392 0
0.445748 0.100684 0.0136852
0.523949 0.0762463 0.0215054
0.619746 0 0.0293255
0.73607 0 0.0381232
0.876833 0 0.0478983
1 0 0.058651
0 0.168133 0
0 0.168133 0
0 0.167155 0
0.0791789 0.167155 0
0.128055 0.167155 0
0.170088 0.166178 0
0.210166 0.166178 0
0.249267 0.164223 0
0.28739 0.162268 0
0.329423 0.160313 0
0.382209 0.155425 0
0.446725 0.148583 0
0.524927 0.135875 0.0127077
0.620723 0.111437 0.0244379
0.737048 0.0488759 0.0342131
0.87781 0 0.0439883
1 0 0.0557185
0 0.203324 0
0 0.203324 0
0 0.203324 0
0.0518084 0.203324 0
0.117302 0.202346 0
0.164223 0.202346 0
0.206256 0.201369 0
0.246334 0.201369 0
0.285435 0.199413 0
0.329423 0.197458 0
0.382209 0.194526 0
0.446725 0.189638 0
0.525904 0.181818 0
0.621701 0.166178 0.0136852
0.738025 0.138807 0.028348
0.878788 0.0723363 0.0400782
1 0 0.0527859
0 0.238514 0
0 0.238514 0
0 0.238514 0
0 0.238514 0
0.0997067 0.238514 0
0.154448 0.238514 0
0.200391 0.237537 0
0.242424 0.237537 0
0.28348 0.236559 0
0.327468 0.234604 0
0.381232 0.232649 0
0.446725 0.229717 0
0.525904 0.222874 0
0.622678 0.212121 0
0.739003 0.194526 0.0175953
0.879765 0.159335 0.0342131
1 0.0684262 0.0488759
0 0.274682 0
0 0.274682 0
0 0.274682 0
0 0.274682 0
0.0703812 0.274682 0
0.140762 0.273705 0
0.191593 0.273705 0
0.236559 0.273705 0
0.278592 0.272727 0
0.324536 0.27175 0
0.379277 0.269795 0
0.445748 0.26784 0
0.525904 0.262952 0
0.622678 0.255132 0
0.73998 0.241447 0
0.880743 0.217009 0.0244379
1 0.171065 0.0430108
0 0.314761 0
0 0.314761 0
0 0.314761 0
0 0.314761 0
0 0.314761 0
0.117302 0.314761 0
0.177908 0.313783 0
0.226784 0.313783 0
0.27175 0.313783 0
0.319648 0.312805 0
0.376344 0.311828 0
0.44477 0.309873 0
0.525904 0.305963 0
0.623656 0.300098 0
0.73998 0.289345 0
0.88172 0.27175 0
1 0.240469 0.0332356
0 0.364614 0
0 0.364614 0
0 0.364614 0
0 0.364614 0
0 0.364614 0
0.0625611 0.364614 0
0.152493 0.364614 0
0.211144 0.364614 0
0.26002 0.363636 0
0.31085 0.363636 0
0.370479 0.362659 0
0.44086 0.360704 0
0.523949 0.358749 0
0.622678 0.353861 0
0.740958 0.347019 0
0.882698 0.333333 0
1 0.31085 0.00293255
0 0.427175 0
0 0.427175 0
0 0.427175 0
0 0.427175 0
0 0.427175 0
0 0.426197 0
0.0987292 0.426197 0
0.180841 0.426197 0
0.239492 0.426197 0
0.296188 0.426197 0
0.359726 0.42522 0
0.434018 0.424242 0
0.519062 0.422287 0
0.620723 0.419355 0
0.73998 0.41349 0
0.882698 0.403715 0
1 0.388074 0
0 0.502444 0
0 0.502444 0
0 0.502444 0
0 0.502444 0
0 0.502444 0
0 0.502444 0
0 0.502444 0
0.11437 0.502444 0
0.200391 0.502444 0
0.268817 0.502444 0
0.341153 0.501466 0
0.420332 0.500489 0
0.511241 0.499511 0
0.614858 0.497556 0
0.738025 0.493646 0
0.882698 0.486804 0
1 0.475073 0
0 0.595308 0
0 0.595308 0
0 0.595308 0
0 0.595308 0
0 0.595308 0
0 0.595308 0
0 0.595308 0
0 0.595308 0
0.105572 0.595308 0
0.217009 0.59433 0
0.30694 0.59433 0
0.396872 0.59433 0
0.494624 0.593353 0
0.605083 0.591398 0
0.731183 0.588465 0
0.879765 0.583578 0
1 0.575758 0
0 0.707722 0
0 0.707722 0
0 0.707722 0
0 0.707722 0
0 0.707722 0
0 0.707722 0
0 0.707722 0
0 0.706745 0
0 0.706745 0
0.0518084 0.706745 0
0.238514 0.706745 0
0.352884 0.706745 0
0.465298 0.705767 0
0.585533 0.70479 0
0.718475 0.702835 0
0.871945 0.699902 0
1 0.694037 0
0 0.843597 0
0 0.843597 0
0 0.843597 0
0 0.843597 0
0 0.84262 0
0 0.84262 0
0 0.84262 0
0 0.84262 0
0 0.84262 0
0 0.84262 0
0 0.84262 0
0.264907 0.84262 0
0.411535 0.841642 0
0.549365 0.841642 0
0.695015 0.839687 0
0.857283 0.837732 0
1 0.833822 0
0 1 0
0 1 0
0 1 0
0 1 0
0 1 0
0 1 0
0 1 0
0 1 0
0 1 0
0 1 0
0 1 0
0 1 0
0.300098 1 0
0.482893 1 0
0.651026 1 0
0.827957 1 0
1 1 0
0 0 0.0254154
0.0312805 0 0.028348
0.0664712 0 0.0312805
0.101662 0 0.0332356
0.13783 0 0.0351906
0.173998 0 0.0361681
0.210166 0 0.0371457
0.247312 0 0.0391007
0.284457 0 0.0400782
0.326491 0 0.0420332
0.378299 0 0.0439883
0.442815 0 0.0469208
0.521017 0 0.0498534
0.617791 0 0.0537634
0.734115 0 0.0596285
0.874878 0 0.0664712
1 0 0.0752688
0 0.0312805 0.030303
0.030303 0.030303 0.030303
0.0664712 0.028348 0.0322581
0.102639 0.0234604 0.0332356
0.13783 0.0058651 0.0351906
0.173998 0 0.0361681
0.211144 0 0.0371457
0.248289 0 0.0391007
0.284457 0 0.0400782
0.326491 0 0.0420332
0.378299 0 0.0439883
0.442815 0 0.0459433
0.521994 0 0.0498534
0.617791 0 0.0537634
0.734115 0 0.0596285
0.874878 0 0.0664712
1 0 0.0742913
0 0.0645161 0.0322581
0.0136852 0.0645161 0.0322581
0.0645161 0.0635386 0.0332356
0.102639 0.0625611 0.0332356
0.138807 0.0596285 0.0351906
0.174976 0.0557185 0.0361681
0.212121 0.0488759 0.0371457
0.248289 0.0381232 0.0381232
0.285435 0.0136852 0.0391007
0.327468 0 0.0410557
0.379277 0 0.0430108
0.443793 0 0.0459433
0.521994 0 0.0488759
0.617791 0 0.0527859
0.734115 0 0.058651
0.874878 0 0.0654936
1 0 0.0742913
0 0.0977517 0.0322581
0 0.0977517 0.0322581
0.0557185 0.0977517 0.0322581
0.0997067 0.0977517 0.0332356
0.13783 0.0967742 0.0342131
0.174976 0.0948192 0.0351906
0.212121 0.0918866 0.0361681
0.249267 0.0879765 0.0371457
0.286413 0.083089 0.0381232
0.328446 0.0742913 0.0400782
0.380254 0.0596285 0.0420332
0.44477 0 0.0439883
0.522972 0 0.0478983
0.618768 0 0.0518084
0.735093 0 0.0576735
0.875855 0 0.0645161
1 0 0.0733138
0 0.132942 0.030303
0 0.132942 0.030303
0.0322581 0.132942 0.0312805
0.0918866 0.131965 0.0312805
0.134897 0.131965 0.0322581
0.173998 0.130987 0.0332356
0.212121 0.13001 0.0342131
0.249267 0.127077 0.0351906
0.28739 0.124145 0.0361681
0.329423 0.120235 0.0381232
0.381232 0.113392 0.0400782
0.445748 0.100684 0.0420332
0.523949 0.0762463 0.0459433
0.619746 0 0.0498534
0.73607 0 0.0557185
0.876833 0 0.0625611
1 0 0.0713587
0 0.168133 0.0273705
0 0.168133 0.0273705
0 0.168133 0.028348
0.0782014 0.167155 0.028348
0.128055 0.167155 0.0293255
0.170088 0.166178 0.030303
0.210166 0.166178 0.0312805
0.249267 0.164223 0.0322581
0.28739 0.162268 0.0332356
0.329423 0.160313 0.0351906
0.382209 0.155425 0.0371457
0.446725 0.148583 0.0391007
0.524927 0.135875 0.0430108
0.620723 0.111437 0.0478983
0.737048 0.0488759 0.0527859
0.87781 0 0.0606061
1 0 0.0694037
0 0.203324 0.0224829
0 0.203324 0.0224829
0 0.203324 0.0224829
0.0508309 0.203324 0.0234604
0.117302 0.202346 0.0234604
0.164223 0.202346 0.0244379
0.206256 0.201369 0.026393
0.246334 0.201369 0.0273705
0.285435 0.199413 0.028348
0.328446 0.197458 0.030303
0.382209 0.194526 0.0322581
0.446725 0.189638 0.0351906
0.525904 0.181818 0.0391007
0.621701 0.166178 0.0439883
0.738025 0.138807 0.0498534
0.878788 0.0723363 0.0576735
1 0 0.0674487
0 0.238514 0.00977517
0 0.238514 0.0107527
0 0.238514 0.0107527
0 0.238514 0.0117302
0.0997067 0.238514 0.0136852
0.154448 0.238514 0.0146628
0.200391 0.237537 0.0166178
0.242424 0.237537 0.0185728
0.282502 0.236559 0.0205279
0.327468 0.234604 0.0224829
0.381232 0.232649 0.0254154
0.446725 0.229717 0.0293255
0.525904 0.222874 0.0332356
0.622678 0.212121 0.0391007
0.739003 0.194526 0.0459433
0.879765 0.159335 0.0537634
1 0.0684262 0.0645161
0 0.274682 0
0 0.274682 0
0 0.274682 0
0 0.274682 0
0.0694037 0.274682 0
0.140762 0.273705 0
0.191593 0.273705 0
0.236559 0.273705 0
0.278592 0.272727 0
0.324536 0.27175 0
0.379277 0.269795 0.0127077
0.445748 0.26784 0.0185728
0.525904 0.262952 0.0254154
0.622678 0.255132 0.0322581
0.73998 0.241447 0.0400782
0.880743 0.217009 0.0498534
1 0.170088 0.0606061
0 0.314761 0
0 0.314761 0
0 0.314761 0
0 0.314761 0
0 0.314761 0
0.117302 0.314761 0
0.177908 0.313783 0
0.226784 0.313783 0
0.27175 0.313783 0
0.319648 0.312805 0
0.376344 0.311828 0
0.44477 0.309873 0
0.525904 0.305963 0
0.623656 0.300098 0.0195503
0.73998 0.289345 0.0312805
0.88172 0.27175 0.0430108
1 0.240469 0.054741
0 0.364614 0
0 0.364614 0
0 0.364614 0
0 0.364614 0
0 0.364614 0
0.0615836 0.364614 0
0.152493 0.364614 0
0.210166 0.364614 0
0.26002 0.363636 0
0.31085 0.363636 0
0.370479 0.362659 0
0.44086 0.360704 0
0.523949 0.358749 0
0.622678 0.353861 0
0.740958 0.347019 0
0.882698 0.333333 0.0293255
1 0.31085 0.0459433
0 0.427175 0
0 0.427175 0
0 0.427175 0
0 0.427175 0
0 0.427175 0
0 0.426197 0
0.0977517 0.426197 0
0.180841 0.426197 0
0.239492 0.426197 0
0.296188 0.426197 0
0.359726 0.42522 0
0.434018 0.424242 0
0.519062 0.422287 0
0.620723 0.419355 0
0.73998 0.41349 0
0.882698 0.403715 0
1 0.388074 0.0244379
0 0.502444 0
0 0.502444 0
0 0.502444 0
0 0.502444 0
0 0.502444 0
0 0.502444 0
0 0.502444 0
0.11437 0.502444 0
0.200391 0.502444 0
0.268817 0.502444 0
0.341153 0.501466 0
0.420332 0.500489 0
0.511241 0.499511 0
0.614858 0.497556 0
0.738025 0.493646 0
0.882698 0.486804 0
1 0.475073 0
0 0.595308 0
0 0.595308 0
0 0.595308 0
0 0.595308 0
0 0.595308 0
0 0.595308 0
0 0.595308 0
0 0.595308 0
0.104594 0.595308 0
0.217009 0.59433 0
0.305963 0.59433 0
0.396872 0.59433 0
0.494624 0.593353 0
0.605083 0.591398 0
0.731183 0.588465 0
0.879765 0.583578 0
1 0.575758 0
0 0.707722 0
0 0.707722 0
0 0.707722 0
0 0.707722 0
0 0.707722 0
0 0.707722 0
0 0.707722 0
0 0.706745 0
0 0.706745 0
0.0508309 0.706745 0
0.237537 0.706745 0
0.352884 0.706745 0
0.465298 0.705767 0
0.585533 0.70479 0
0.718475 0.702835 0
0.871945 0.699902 0
1 0.694037 0
0 0.843597 0
0 0.843597 0
0 0.843597 0
0 0.843597 0
0 0.84262 0
0 0.84262 0
0 0.84262 0
0 0.84262 0
0 0.84262 0
0 0.84262 0
0 0.84262 0
0.264907 0.84262 0
0.411535 0.841642 0
0.549365 0.841642 0
0.695015 0.839687 0
0.857283 0.837732 0
1 0.833822 0
0 1 0
0 1 0
0 1 0
0 1 0
0 1 0
0 1 0
0 1 0
0 1 0
0 1 0
0 1 0
0 1 0
0 1 0
0.300098 1 0
0.482893 1 0
0.651026 1 0
0.827957 1 0
1 1 0
0 0 0.0527859
0.030303 0 0.0557185
0.0654936 0 0.0596285
0.101662 0 0.0625611
0.13783 0 0.0645161
0.173998 0 0.0674487
0.210166 0 0.0684262
0.247312 0 0.0703812
0.284457 0 0.0723363
0.326491 0 0.0742913
0.378299 0 0.0762463
0.442815 0 0.0782014
0.521017 0 0.0811339
0.616813 0 0.085044
0.734115 0 0.0889541
0.874878 0 0.0948192
1 0 0.101662
0 0.0312805 0.0576735
0.028348 0.030303 0.058651
0.0664712 0.028348 0.0606061
0.101662 0.0224829 0.0635386
0.13783 0 0.0654936
0.173998 0 0.0674487
0.211144 0 0.0694037
0.247312 0 0.0703812
0.284457 0 0.0723363
0.326491 0 0.0742913
0.378299 0 0.0762463
0.442815 0 0.0782014
0.521994 0 0.0811339
0.617791 0 0.085044
0.734115 0 0.0889541
0.874878 0 0.0948192
1 0 0.101662
0 0.0645161 0.0625611
0 0.0645161 0.0625611
0.0635386 0.0635386 0.0635386
0.101662 0.0625611 0.0645161
0.138807 0.0596285 0.0664712
0.174976 0.0557185 0.0684262
0.212121 0.0488759 0.0694037
0.248289 0.0381232 0.0713587
0.285435 0.0117302 0.0723363
0.327468 0 0.0742913
0.379277 0 0.0762463
0.443793 0 0.0782014
0.521994 0 0.0811339
0.617791 0 0.0840665
0.734115 0 0.0889541
0.874878 0 0.0948192
1 0 0.101662
0 0.0977517 0.0645161
0 0.0977517 0.0654936
0.054741 0.0977517 0.0654936
0.0987292 0.0977517 0.0664712
0.13783 0.0967742 0.0674487
0.174976 0.0948192 0.0684262
0.212121 0.0918866 0.0694037
0.249267 0.0879765 0.0713587
0.286413 0.083089 0.0723363
0.328446 0.0742913 0.0733138
0.380254 0.058651 0.0752688
0.44477 0 0.0782014
0.522972 0 0.0801564
0.618768 0 0.0840665
0.735093 0 0.0879765
0.875855 0 0.0938416
1 0 0.100684
0 0.132942 0.0664712
0 0.132942 0.0664712
0.0293255 0.132942 0.0664712
0.0909091 0.131965 0.0674487
0.13392 0.131965 0.0684262
0.173998 0.130987 0.0694037
0.212121 0.129032 0.0703812
0.249267 0.127077 0.0713587
0.28739 0.124145 0.0723363
0.329423 0.120235 0.0733138
0.381232 0.113392 0.0752688
0.445748 0.100684 0.0772239
0.523949 0.0762463 0.0801564
0.619746 0 0.083089
0.73607 0 0.086999
0.876833 0 0.0928641
1 0 0.0997067
0 0.168133 0.0664712
0 0.168133 0.0664712
0 0.168133 0.0674487
0.0772239 0.167155 0.0674487
0.127077 0.167155 0.0684262
0.170088 0.166178 0.0684262
0.210166 0.166178 0.0694037
0.248289 0.164223 0.0703812
0.286413 0.162268 0.0713587
0.329423 0.160313 0.0723363
0.382209 0.155425 0.0742913
0.445748 0.148583 0.0762463
0.524927 0.134897 0.0791789
0.620723 0.111437 0.0821114
0.737048 0.0478983 0.0860215
0.876833 0 0.0918866
1 0 0.0987292
0 0.203324 0.0664712
0 0.203324 0.0664712
0 0.203324 0.0664712
0.0488759 0.203324 0.0674487
0.116325 0.202346 0.0674487
0.163245 0.202346 0.0684262
0.206256 0.201369 0.0694037
0.246334 0.200391 0.0694037
0.285435 0.199413 0.0703812
0.328446 0.197458 0.0713587
0.382209 0.194526 0.0733138
0.446725 0.189638 0.0752688
0.525904 0.180841 0.0772239
0.621701 0.166178 0.0801564
0.738025 0.138807 0.085044
0.878788 0.0713587 0.0899316
1 0 0.0967742
0 0.238514 0.0654936
0 0.238514 0.0654936
0 0.238514 0.0654936
0 0.238514 0.0664712
0.0987292 0.238514 0.0664712
0.15347 0.238514 0.0674487
0.199413 0.237537 0.0674487
0.242424 0.237537 0.0684262
0.282502 0.236559 0.0694037
0.327468 0.234604 0.0703812
0.381232 0.232649 0.0713587
0.446725 0.228739 0.0733138
0.525904 0.222874 0.0752688
0.622678 0.212121 0.0791789
0.739003 0.194526 0.083089
0.879765 0.159335 0.0879765
1 0.0684262 0.0957967
0 0.274682 0.0635386
0 0.274682 0.0635386
0 0.274682 0.0635386
0 0.274682 0.0645161
0.0684262 0.274682 0.0645161
0.139785 0.273705 0.0654936
0.190616 0.273705 0.0654936
0.235582 0.273705 0.0664712
0.278592 0.272727 0.0674487
0.324536 0.27175 0.0684262
0.379277 0.269795 0.0694037
0.445748 0.26784 0.0713587
0.525904 0.262952 0.0733138
0.622678 0.255132 0.0762463
0.73998 0.241447 0.0801564
0.880743 0.217009 0.0860215
1 0.170088 0.0928641
0 0.314761 0.0606061
0 0.314761 0.0606061
0 0.314761 0.0606061
0 0.314761 0.0615836
0 0.314761 0.0615836
0.116325 0.314761 0.0615836
0.176931 0.313783 0.0625611
0.226784 0.313783 0.0635386
0.27175 0.313783 0.0635386
0.319648 0.312805 0.0645161
0.376344 0.311828 0.0664712
0.44477 0.309873 0.0674487
0.525904 0.305963 0.0703812
0.622678 0.300098 0.0733138
0.73998 0.289345 0.0772239
0.88172 0.27175 0.083089
1 0.240469 0.0899316
0 0.364614 0.0557185
0 0.364614 0.0557185
0 0.364614 0.0557185
0 0.364614 0.0557185
0 0.364614 0.0557185
0.0596285 0.364614 0.056696
0.151515 0.364614 0.056696
0.210166 0.364614 0.0576735
0.26002 0.363636 0.058651
0.31085 0.363636 0.0596285
0.370479 0.362659 0.0606061
0.44086 0.360704 0.0625611
0.523949 0.358749 0.0645161
0.622678 0.353861 0.0684262
0.740958 0.347019 0.0723363
0.882698 0.333333 0.0782014
1 0.31085 0.0860215
0 0.427175 0.0449658
0 0.427175 0.0449658
0 0.427175 0.0449658
0 0.427175 0.0449658
0 0.427175 0.0459433
0 0.426197 0.0459433
0.0967742 0.426197 0.0469208
0.179863 0.426197 0.0478983
0.238514 0.426197 0.0488759
0.296188 0.426197 0.0498534
0.359726 0.42522 0.0508309
0.43304 0.424242 0.0527859
0.519062 0.422287 0.0557185
0.620723 0.419355 0.0596285
0.73998 0.41349 0.0645161
0.882698 0.403715 0.0703812
1 0.388074 0.0782014
0 0.502444 0.0127077
0 0.502444 0.0136852
0 0.502444 0.0136852
0 0.502444 0.0146628
0 0.502444 0.0166178
0 0.502444 0.0175953
0 0.502444 0.0195503
0.113392 0.502444 0.0215054
0.199413 0.502444 0.0234604
0.268817 0.502444 0.0254154
0.341153 0.501466 0.028348
0.420332 0.500489 0.0312805
0.510264 0.499511 0.0361681
0.614858 0.497556 0.0410557
0.737048 0.493646 0.0478983
0.88172 0.486804 0.056696
1 0.475073 0.0664712
0 0.595308 0
0 0.595308 0
0 0.595308 0
0 0.595308 0
0 0.595308 0
0 0.595308 0
0 0.595308 0
0 0.595308 0
0.103617 0.595308 0
0.216031 0.59433 0
0.305963 0.59433 0
0.396872 0.59433 0
0.494624 0.593353 0
0.605083 0.591398 0
0.731183 0.588465 0
0.879765 0.583578 0.0156403
1 0.575758 0.0400782
0 0.707722 0
0 0.707722 0
0 0.707722 0
0 0.707722 0
0 0.707722 0
0 0.707722 0
0 0.707722 0
0 0.706745 0
0 0.706745 0
0.0469208 0.706745 0
0.237537 0.706745 0
0.352884 0.706745 0
0.465298 0.705767 0
0.584555 0.70479 0
0.718475 0.702835 0
0.871945 0.699902 0
1 0.694037 0
0 0.843597 0
0 0.843597 0
0 0.843597 0
0 0.843597 0
0 0.843597 0
0 0.84262 0
0 0.84262 0
0 0.84262 0
0 0.84262 0
0 0.84262 0
0 0.84262 0
0.264907 0.84262 0
0.410557 0.841642 0
0.549365 0.841642 0
0.695015 0.839687 0
0.856305 0.837732 0
1 0.833822 0
0 1 0
0 1 0
0 1 0
0 1 0
0 1 0
0 1 0
0 1 0
0 1 0
0 1 0
0 1 0
0 1 0
0 1 0
0.29912 1 0
0.482893 1 0
0.651026 1 0
0.827957 1 0
1 1 0
0 0 0.0811339
0.0273705 0 0.083089
0.0654936 0 0.086999
0.100684 0 0.0909091
0.136852 0 0.0938416
0.173998 0 0.0967742
0.210166 0 0.0997067
0.247312 0 0.101662
0.284457 0 0.103617
0.326491 0 0.105572
0.378299 0 0.108504
0.442815 0 0.110459
0.521017 0 0.11437
0.616813 0 0.11828
0.734115 0 0.12219
0.874878 0 0.127077
1 0 0.13392
0 0.030303 0.0860215
0.0234604 0.030303 0.086999
0.0645161 0.0273705 0.0889541
0.101662 0.0215054 0.0918866
0.13783 0 0.0948192
0.173998 0 0.0977517
0.210166 0 0.0997067
0.247312 0 0.101662
0.284457 0 0.103617
0.326491 0 0.105572
0.378299 0 0.108504
0.442815 0 0.111437
0.521994 0 0.11437
0.617791 0 0.11828
0.734115 0 0.12219
0.874878 0 0.127077
