odm/etc/Custom_LUT_hlg.cube
LUT_3D_SIZE 5
0 0 0
0.13783 0 0.00782014
0.284457 0 0.0166178
0.521017 0 0.0312805
1 0 0.0625611
0 0.132942 0
0.134897 0.131965 0
0.28739 0.124145 0
0.523949 0.0762463 0.0215054
1 0 0.058651
0 0.274682 0
0.0703812 0.274682 0
0.278592 0.272727 0
0.525904 0.262952 0
1 0.171065 0.0430108
0 0.502444 0
0 0.502444 0
0.200391 0.502444 0
0.511241 0.499511 0
1 0.475073 0
0 1 0
0 1 0
0 1 0
0.300098 1 0
1 1 0
0 0 0.109482
0.136852 0 0.123167
0.284457 0 0.134897
0.521017 0 0.146628
1 0 0.167155
0 0.132942 0.129032
0.131965 0.131965 0.131965
0.286413 0.124145 0.13783
0.523949 0.0752688 0.147605
1 0 0.166178
0 0.274682 0.136852
0.0606061 0.274682 0.13783
0.277615 0.272727 0.140762
0.525904 0.262952 0.147605
1 0.170088 0.164223
0 0.502444 0.135875
0 0.502444 0.135875
0.197458 0.502444 0.13783
0.510264 0.499511 0.14174
1 0.475073 0.155425
0 1 0.0518084
0 1 0.0527859
0 1 0.054741
0.298143 1 0.0615836
1 1 0.0840665
0 0 0.226784
0.130987 0 0.238514
0.282502 0 0.254154
0.520039 0 0.273705
1 0 0.302053
0 0.132942 0.247312
0.121212 0.130987 0.252199
0.28348 0.123167 0.260997
0.522972 0.0703812 0.276637
1 0 0.302053
0 0.274682 0.266862
0 0.274682 0.26784
0.272727 0.272727 0.272727
0.523949 0.261975 0.281525
1 0.168133 0.30303
0 0.502444 0.281525
0 0.502444 0.282502
0.187683 0.502444 0.284457
0.507331 0.499511 0.289345
1 0.474096 0.304008
0 1 0.281525
0 1 0.281525
0 1 0.282502
0.290323 1 0.284457
1 1 0.293255
0 0 0.415445
0.101662 0 0.423265
0.274682 0 0.44086
0.517107 0 0.466276
1 0 0.507331
0 0.130987 0.43304
0.0762463 0.129032 0.437928
0.272727 0.117302 0.449658
0.519062 0.0537634 0.471163
1 0 0.508309
0 0.274682 0.459433
0 0.274682 0.461388
0.257087 0.27175 0.468231
0.519062 0.26002 0.480938
1 0.162268 0.512219
0 0.503421 0.488759
0 0.503421 0.489736
0.154448 0.502444 0.491691
0.499511 0.499511 0.499511
1 0.473118 0.520039
0 1 0.519062
0 1 0.519062
0 1 0.520039
0.268817 1 0.522972
1 1 0.532747
0 0 0.83089
0 0 0.835777
0.217009 0 0.849462
0.498534 0 0.876833
1 0 0.933529
0 0.111437 0.84262
0 0.105572 0.847507
0.207234 0.0860215 0.85826
0.497556 0 0.882698
1 0 0.936461
0 0.272727 0.869013
0 0.270772 0.871945
0.16911 0.266862 0.879765
0.492669 0.251222 0.897361
1 0.13392 0.943304
0 0.503421 0.912023
0 0.503421 0.913001
0 0.502444 0.916911
0.463343 0.497556 0.927664
1 0.468231 0.959922
0 1 0.977517
0 1 0.978495
0 1 0.979472
0.134897 1 0.98436
1 0.999022 1
