odm/etc/hdr3dlut_pq_qcom_grid_out_rgb.cube
LUT_3D_SIZE 17
0 0 0
0.030303 0 0.00293255
0.0557185 0 0.00391007
0.0860215 0 0.00488759
0.119257 0 0.00684262
0.158358 0 0.00879765
0.241447 0 0.0146628
0.330401 0 0.0195503
0.381232 0 0.0224829
0.437928 0 0.026393
0.502444 0 0.030303
0.57478 0 0.0342131
0.656892 0 0.0391007
0.748778 0 0.0449658
0.851417 0 0.0508309
1 0 0.0977517
1 0 0.116325
0 0.0244379 0
0.0234604 0.0234604 0
0.0527859 0.0175953 0.000977517
0.0840665 0 0.00391007
0.11828 0 0.00684262
0.158358 0 0.00879765
0.241447 0 0.0136852
0.330401 0 0.0195503
0.381232 0 0.0224829
0.437928 0 0.026393
0.502444 0 0.030303
0.57478 0 0.0342131
0.656892 0 0.0391007
0.748778 0 0.0449658
0.851417 0 0.0508309
1 0 0.0977517
1 0 0.116325
0 0.0459433 0
0 0.0449658 0
0.0439883 0.0430108 0
0.0772239 0.0371457 0
0.11437 0.0254154 0.00391007
0.158358 0 0.00782014
0.240469 0 0.0136852
0.330401 0 0.0185728
0.381232 0 0.0224829
0.437928 0 0.0254154
0.502444 0 0.0293255
0.57478 0 0.0342131
0.656892 0 0.0391007
0.747801 0 0.0449658
0.851417 0 0.0508309
1 0 0.0977517
1 0 0.116325
0 0.0674487 0
0 0.0674487 0
0.0244379 0.0664712 0
0.0645161 0.0625611 0
0.111437 0.058651 0
0.156403 0.0527859 0
0.239492 0.0254154 0.0107527
0.329423 0 0.0175953
0.380254 0 0.0205279
0.43695 0 0.0244379
0.501466 0 0.028348
0.57478 0 0.0332356
0.656892 0 0.0381232
0.747801 0 0.0439883
0.85044 0 0.0508309
1 0 0.0967742
1 0 0.116325
0 0.104594 0
0 0.104594 0
0 0.103617 0
0.0469208 0.103617 0
0.103617 0.101662 0
0.151515 0.0987292 0
0.236559 0.0889541 0
0.327468 0.0684262 0.0117302
0.378299 0.0459433 0.0166178
0.435973 0 0.0215054
0.500489 0 0.0254154
0.573803 0 0.0312805
0.655914 0 0.0361681
0.746823 0 0.0420332
0.85044 0 0.0488759
1 0 0.0967742
1 0 0.116325
0 0.143695 0
0 0.143695 0
0 0.143695 0
0 0.143695 0
0.0899316 0.14174 0
0.142717 0.139785 0
0.231672 0.13392 0
0.323558 0.12219 0
0.375367 0.113392 0
0.434018 0.0987292 0.0136852
0.498534 0.0762463 0.0205279
0.571847 0 0.026393
0.653959 0 0.0332356
0.745846 0 0.0400782
0.849462 0 0.0469208
1 0 0.0957967
1 0 0.115347
0 0.217986 0
0 0.217986 0
0 0.217986 0
0 0.217986 0
0 0.217009 0
0.113392 0.216031 0
0.217009 0.212121 0
0.313783 0.205279 0
0.367546 0.201369 0
0.427175 0.194526 0
0.493646 0.184751 0
0.567937 0.172043 0
0.650049 0.152493 0.0195503
0.741935 0.121212 0.030303
0.845552 0.0459433 0.0391007
1 0 0.0928641
1 0 0.11437
0 0.29912 0
0 0.29912 0
0 0.29912 0
0 0.298143 0
0 0.298143 0
0 0.297165 0
0.188661 0.294233 0
0.297165 0.290323 0
0.353861 0.28739 0
0.415445 0.28348 0
0.483871 0.277615 0
0.55914 0.269795 0
0.642229 0.258065 0
0.735093 0.243402 0
0.840665 0.220919 0.0195503
1 0 0.0879765
1 0 0.111437
0 0.345064 0
0 0.345064 0
0 0.345064 0
0 0.345064 0
0 0.344086 0
0 0.343109 0
0.164223 0.341153 0
0.28348 0.338221 0
0.343109 0.335288 0
0.406647 0.332356 0
0.476051 0.327468 0
0.552297 0.320626 0
0.636364 0.311828 0
0.730205 0.29912 0
0.837732 0.282502 0
1 0 0.0840665
1 0 0.109482
0 0.396872 0
0 0.396872 0
0 0.396872 0
0 0.396872 0
0 0.396872 0
0 0.395894 0
0.12219 0.393939 0
0.26393 0.391007 0
0.327468 0.389052 0
0.393939 0.385142 0
0.465298 0.381232 0
0.5435 0.376344 0
0.629521 0.368524 0
0.725318 0.358749 0
0.832845 0.346041 0
1 0 0.0791789
1 0 0.106549
0 0.454545 0
0 0.454545 0
0 0.454545 0
0 0.454545 0
0 0.454545 0
0 0.453568 0
0 0.45259 0
0.235582 0.449658 0
0.305963 0.447703 0
0.377322 0.44477 0
0.451613 0.441838 0
0.531769 0.43695 0
0.619746 0.431085 0
0.717498 0.423265 0
0.826002 0.412512 0
1 0.106549 0.0723363
1 0 0.102639
0 0.520039 0
0 0.520039 0
0 0.519062 0
0 0.519062 0
0 0.519062 0
0 0.519062 0
0 0.517107 0
0.188661 0.515152 0
0.273705 0.513196 0
0.352884 0.511241 0
0.432063 0.509286 0
0.517107 0.505376 0
0.607038 0.500489 0
0.706745 0.493646 0
0.817204 0.484848 0
1 0.262952 0.0615836
1 0 0.0977517
0 0.593353 0
0 0.593353 0
0 0.593353 0
0 0.593353 0
0 0.592375 0
0 0.592375 0
0 0.591398 0
0.086999 0.589443 0
0.223851 0.588465 0
0.317693 0.58651 0
0.40567 0.584555 0
0.495601 0.580645 0
0.59042 0.576735 0
0.692082 0.57087 0
0.804497 0.56305 0
1 0.366569 0.0439883
1 0 0.0918866
0 0.676442 0
0 0.676442 0
0 0.676442 0
0 0.676442 0
0 0.675464 0
0 0.675464 0
0 0.674487 0
0 0.673509 0
0.120235 0.672532 0
0.261975 0.670577 0
0.366569 0.668622 0
0.465298 0.665689 0
0.565005 0.661779 0
0.671554 0.656892 0
0.784946 0.648094 0
1 0.459433 0
1 0.184751 0.0821114
0 0.769306 0
0 0.769306 0
0 0.769306 0
0 0.769306 0
0 0.769306 0
0 0.769306 0
0 0.768328 0
0 0.766373 0
0 0.765396 0
0.152493 0.764418 0
0.304008 0.761486 0
0.418377 0.756598 0
0.525904 0.749756 0
0.634409 0.741935 0
0.747801 0.731183 0
1 0.550342 0
1 0.336266 0.0694037
0 1 0
0 1 0
0 1 0
0 1 0
0 1 0
0 1 0
0 1 0
0 1 0
0 1 0
0 1 0
0 1 0
0 1 0
0 1 0
0 1 0
0 1 0
1 1 0
1 0.869013 0
0 1 0
0 1 0
0 1 0
0 1 0
0 1 0
0 1 0
0 1 0
0 1 0
0 1 0
0 1 0
0 1 0
0 1 0
0 1 0
0 1 0
0 1 0
0.660802 1 0
1 1 0
0 0 0.0293255
0.0293255 0 0.026393
0.0557185 0 0.0224829
0.085044 0 0.0195503
0.119257 0 0.0175953
0.158358 0 0.0185728
0.241447 0 0.0215054
0.330401 0 0.0244379
0.381232 0 0.0273705
0.437928 0 0.030303
0.502444 0 0.0332356
0.57478 0 0.0371457
0.656892 0 0.0420332
0.748778 0 0.0469208
0.851417 0 0.0527859
1 0 0.0977517
1 0 0.117302
0 0.0244379 0.0234604
0.0224829 0.0224829 0.0224829
0.0527859 0.0175953 0.0215054
0.0840665 0 0.0195503
0.11828 0 0.0175953
0.158358 0 0.0185728
0.241447 0 0.0205279
0.330401 0 0.0244379
0.381232 0 0.0273705
0.437928 0 0.030303
0.502444 0 0.0332356
0.57478 0 0.0371457
0.656892 0 0.0420332
0.748778 0 0.0469208
0.851417 0 0.0527859
1 0 0.0977517
1 0 0.117302
0 0.0459433 0.0185728
0 0.0449658 0.0185728
0.0439883 0.0430108 0.0185728
0.0772239 0.0371457 0.0175953
0.11437 0.0254154 0.0166178
0.158358 0 0.0175953
0.240469 0 0.0205279
0.330401 0 0.0244379
0.381232 0 0.026393
0.437928 0 0.0293255
0.502444 0 0.0332356
0.57478 0 0.0371457
0.656892 0 0.0420332
0.747801 0 0.0469208
0.851417 0 0.0527859
1 0 0.0977517
1 0 0.117302
0 0.0674487 0.0136852
0 0.0674487 0.0136852
0.0244379 0.0664712 0.0136852
0.0645161 0.0625611 0.0136852
0.111437 0.058651 0.0146628
0.156403 0.0527859 0.0156403
0.239492 0.0254154 0.0185728
0.329423 0 0.0234604
0.380254 0 0.0254154
0.43695 0 0.028348
0.501466 0 0.0322581
0.57478 0 0.0361681
0.656892 0 0.0410557
0.747801 0 0.0459433
0.85044 0 0.0527859
1 0 0.0977517
1 0 0.116325
0 0.104594 0
0 0.104594 0
0 0.103617 0
0.0469208 0.103617 0.00195503
0.103617 0.101662 0.0058651
0.151515 0.0987292 0.00879765
0.236559 0.0889541 0.0136852
0.327468 0.0684262 0.0195503
0.378299 0.0459433 0.0224829
0.435973 0 0.026393
0.500489 0 0.030303
0.573803 0 0.0342131
0.655914 0 0.0391007
0.746823 0 0.0449658
0.85044 0 0.0508309
1 0 0.0967742
1 0 0.116325
0 0.143695 0
0 0.143695 0
0 0.143695 0
0 0.143695 0
0.0899316 0.14174 0
0.142717 0.139785 0
0.231672 0.13392 0
0.323558 0.12219 0.0107527
0.375367 0.113392 0.0156403
0.434018 0.0987292 0.0205279
0.498534 0.0762463 0.0254154
0.571847 0 0.030303
0.653959 0 0.0361681
0.745846 0 0.0420332
0.849462 0 0.0488759
1 0 0.0957967
1 0 0.116325
0 0.217986 0
0 0.217986 0
0 0.217986 0
0 0.217986 0
0 0.217009 0
0.113392 0.216031 0
0.217009 0.212121 0
0.313783 0.205279 0
0.367546 0.201369 0
0.427175 0.194526 0
0.493646 0.184751 0
0.567937 0.172043 0.0146628
0.650049 0.152493 0.0254154
0.741935 0.121212 0.0332356
0.845552 0.0459433 0.0420332
1 0 0.0938416
1 0 0.11437
0 0.29912 0
0 0.29912 0
0 0.29912 0
0 0.298143 0
0 0.298143 0
0 0.297165 0
0.188661 0.294233 0
0.297165 0.290323 0
0.353861 0.28739 0
0.415445 0.28348 0
0.483871 0.277615 0
0.55914 0.269795 0
0.642229 0.258065 0
0.735093 0.243402 0
0.840665 0.220919 0.0254154
1 0 0.0889541
1 0 0.111437
0 0.345064 0
0 0.345064 0
0 0.345064 0
0 0.345064 0
0 0.344086 0
0 0.343109 0
0.164223 0.341153 0
0.28348 0.338221 0
0.343109 0.335288 0
0.406647 0.332356 0
0.476051 0.327468 0
0.552297 0.320626 0
0.636364 0.311828 0
0.730205 0.29912 0
0.837732 0.282502 0
1 0 0.085044
1 0 0.109482
0 0.396872 0
0 0.396872 0
0 0.396872 0
0 0.396872 0
0 0.396872 0
0 0.395894 0
0.121212 0.393939 0
0.26393 0.391007 0
0.327468 0.389052 0
0.393939 0.385142 0
0.465298 0.381232 0
0.5435 0.376344 0
0.629521 0.368524 0
0.725318 0.358749 0
0.832845 0.346041 0
1 0 0.0801564
1 0 0.107527
0 0.454545 0
0 0.454545 0
0 0.454545 0
0 0.454545 0
0 0.454545 0
0 0.453568 0
0 0.45259 0
0.235582 0.449658 0
0.305963 0.447703 0
0.377322 0.44477 0
0.451613 0.441838 0
0.531769 0.43695 0
0.619746 0.431085 0
0.717498 0.423265 0
0.826002 0.412512 0
1 0.106549 0.0733138
1 0 0.103617
0 0.520039 0
0 0.520039 0
0 0.519062 0
0 0.519062 0
0 0.519062 0
0 0.519062 0
0 0.517107 0
0.188661 0.515152 0
0.273705 0.513196 0
0.352884 0.511241 0
0.432063 0.509286 0
0.517107 0.505376 0
0.607038 0.500489 0
0.706745 0.493646 0
0.817204 0.484848 0
1 0.262952 0.0625611
1 0 0.0987292
0 0.593353 0
0 0.593353 0
0 0.593353 0
0 0.593353 0
0 0.592375 0
0 0.592375 0
0 0.591398 0
0.086999 0.589443 0
0.223851 0.588465 0
0.317693 0.58651 0
0.40567 0.584555 0
0.495601 0.580645 0
0.59042 0.576735 0
0.692082 0.57087 0
0.804497 0.56305 0
1 0.366569 0.0459433
1 0 0.0918866
0 0.676442 0
0 0.676442 0
0 0.676442 0
0 0.676442 0
0 0.675464 0
0 0.675464 0
0 0.674487 0
0 0.673509 0
0.120235 0.671554 0
0.261975 0.670577 0
0.366569 0.668622 0
0.465298 0.665689 0
0.565005 0.661779 0
0.671554 0.656892 0
0.784946 0.648094 0
1 0.459433 0
1 0.184751 0.083089
0 0.769306 0
0 0.769306 0
0 0.769306 0
0 0.769306 0
0 0.769306 0
0 0.769306 0
0 0.768328 0
0 0.766373 0
0 0.765396 0
0.152493 0.764418 0
0.304008 0.761486 0
0.418377 0.756598 0
0.525904 0.749756 0
0.634409 0.741935 0
0.747801 0.731183 0
1 0.550342 0
1 0.336266 0.0694037
0 1 0
0 1 0
0 1 0
0 1 0
0 1 0
0 1 0
0 1 0
0 1 0
0 1 0
0 1 0
0 1 0
0 1 0
0 1 0
0 1 0
0 1 0
1 1 0
1 0.869013 0
0 1 0
0 1 0
0 1 0
0 1 0
0 1 0
0 1 0
0 1 0
0 1 0
0 1 0
0 1 0
0 1 0
0 1 0
0 1 0
0 1 0
0 1 0
0.660802 1 0
1 1 0
0 0 0.0576735
0.0244379 0 0.054741
0.0537634 0 0.0488759
0.0840665 0 0.0430108
0.119257 0 0.0381232
0.158358 0 0.0371457
0.241447 0 0.0381232
0.330401 0 0.0400782
0.381232 0 0.0420332
0.437928 0 0.0439883
0.502444 0 0.0459433
0.57478 0 0.0488759
0.656892 0 0.0518084
0.748778 0 0.056696
0.851417 0 0.0615836
1 0 0.101662
1 0 0.119257
0 0.0234604 0.0508309
0.0195503 0.0215054 0.0498534
0.0508309 0.0166178 0.0469208
0.083089 0 0.0430108
0.11828 0 0.0371457
0.158358 0 0.0371457
0.241447 0 0.0381232
0.330401 0 0.0400782
0.381232 0 0.0420332
0.437928 0 0.0439883
0.502444 0 0.0459433
0.57478 0 0.0488759
0.656892 0 0.0518084
0.748778 0 0.056696
0.851417 0 0.0615836
1 0 0.101662
1 0 0.119257
0 0.0449658 0.0439883
0 0.0449658 0.0439883
0.0420332 0.0420332 0.0420332
0.0762463 0.0371457 0.0400782
0.113392 0.0244379 0.0361681
0.158358 0 0.0371457
0.240469 0 0.0381232
0.329423 0 0.0400782
0.380254 0 0.0420332
0.437928 0 0.0430108
0.502444 0 0.0459433
0.57478 0 0.0488759
0.656892 0 0.0518084
0.747801 0 0.0557185
0.851417 0 0.0606061
1 0 0.101662
1 0 0.11828
0 0.0674487 0.0371457
0 0.0674487 0.0371457
0.0224829 0.0654936 0.0361681
0.0635386 0.0625611 0.0351906
0.110459 0.058651 0.0351906
0.156403 0.0527859 0.0361681
0.239492 0.0254154 0.0371457
0.329423 0 0.0391007
0.380254 0 0.0410557
0.43695 0 0.0430108
0.501466 0 0.0449658
0.57478 0 0.0478983
0.656892 0 0.0518084
0.747801 0 0.0557185
0.85044 0 0.0606061
1 0 0.101662
1 0 0.11828
0 0.104594 0.0332356
0 0.104594 0.0332356
0 0.103617 0.0332356
0.0459433 0.103617 0.0332356
0.103617 0.101662 0.0332356
0.151515 0.0987292 0.0342131
0.236559 0.0879765 0.0351906
0.327468 0.0684262 0.0381232
0.378299 0.0459433 0.0391007
0.435973 0 0.0410557
0.500489 0 0.0439883
0.573803 0 0.0469208
0.655914 0 0.0498534
0.746823 0 0.054741
0.85044 0 0.0596285
1 0 0.100684
1 0 0.11828
0 0.143695 0.0293255
0 0.143695 0.0293255
0 0.143695 0.0293255
0 0.143695 0.0293255
0.0899316 0.14174 0.030303
0.142717 0.139785 0.030303
0.231672 0.13392 0.0322581
0.323558 0.12219 0.0342131
0.375367 0.113392 0.0361681
0.434018 0.0987292 0.0381232
0.498534 0.0762463 0.0410557
0.571847 0 0.0439883
0.653959 0 0.0478983
0.745846 0 0.0527859
0.849462 0 0.0576735
1 0 0.0997067
1 0 0.117302
0 0.217986 0.0117302
0 0.217986 0.0117302
0 0.217986 0.0117302
0 0.217986 0.0117302
0 0.217009 0.0127077
0.113392 0.216031 0.0146628
0.217009 0.212121 0.0175953
0.313783 0.205279 0.0224829
0.367546 0.201369 0.0254154
0.427175 0.194526 0.028348
0.493646 0.184751 0.0322581
0.56696 0.172043 0.0361681
0.650049 0.152493 0.0410557
0.741935 0.121212 0.0459433
0.845552 0.0459433 0.0518084
1 0 0.0967742
1 0 0.116325
0 0.29912 0
0 0.29912 0
0 0.29912 0
0 0.298143 0
0 0.298143 0
0 0.297165 0
0.188661 0.294233 0
0.297165 0.290323 0
0.353861 0.28739 0
0.415445 0.28348 0
0.483871 0.277615 0
0.55914 0.269795 0.00977517
0.642229 0.258065 0.0224829
0.735093 0.243402 0.0322581
0.840665 0.220919 0.0410557
1 0 0.0928641
1 0 0.113392
0 0.345064 0
0 0.345064 0
0 0.345064 0
0 0.345064 0
0 0.344086 0
0 0.343109 0
0.164223 0.341153 0
0.28348 0.338221 0
0.343109 0.335288 0
0.406647 0.332356 0
0.476051 0.327468 0
0.552297 0.320626 0
0.636364 0.311828 0
0.730205 0.29912 0.0107527
0.836755 0.282502 0.028348
1 0 0.0889541
1 0 0.111437
0 0.396872 0
0 0.396872 0
0 0.396872 0
0 0.396872 0
0 0.396872 0
0 0.395894 0
0.121212 0.393939 0
0.26393 0.391007 0
0.327468 0.389052 0
0.393939 0.385142 0
0.465298 0.381232 0
0.5435 0.376344 0
0.629521 0.368524 0
0.72434 0.358749 0
0.832845 0.346041 0
1 0 0.0840665
1 0 0.109482
0 0.454545 0
0 0.454545 0
0 0.454545 0
0 0.454545 0
0 0.454545 0
0 0.453568 0
0 0.45259 0
0.235582 0.449658 0
0.305963 0.447703 0
0.376344 0.44477 0
0.451613 0.441838 0
0.531769 0.43695 0
0.619746 0.431085 0
0.717498 0.423265 0
0.826002 0.412512 0
1 0.106549 0.0772239
1 0 0.105572
0 0.520039 0
0 0.520039 0
0 0.519062 0
0 0.519062 0
0 0.519062 0
0 0.519062 0
0 0.517107 0
0.188661 0.515152 0
0.273705 0.513196 0
0.352884 0.511241 0
0.432063 0.509286 0
0.516129 0.505376 0
0.607038 0.500489 0
0.706745 0.493646 0
0.817204 0.484848 0
1 0.262952 0.0674487
1 0 0.100684
0 0.593353 0
0 0.593353 0
0 0.593353 0
0 0.593353 0
0 0.592375 0
0 0.592375 0
0 0.591398 0
0.086999 0.589443 0
0.223851 0.588465 0
0.317693 0.58651 0
0.40567 0.584555 0
0.495601 0.580645 0
0.59042 0.576735 0
0.692082 0.57087 0
0.804497 0.56305 0
1 0.366569 0.0527859
1 0 0.0948192
0 0.676442 0
0 0.676442 0
0 0.676442 0
0 0.676442 0
0 0.675464 0
0 0.675464 0
0 0.674487 0
0 0.673509 0
0.120235 0.671554 0
0.261975 0.670577 0
0.366569 0.668622 0
0.465298 0.665689 0
0.565005 0.661779 0
0.671554 0.656892 0
0.784946 0.648094 0
1 0.459433 0.0185728
1 0.184751 0.0860215
0 0.769306 0
0 0.769306 0
0 0.769306 0
0 0.769306 0
0 0.769306 0
0 0.769306 0
0 0.768328 0
0 0.766373 0
0 0.765396 0
0.152493 0.764418 0
0.304008 0.761486 0
0.418377 0.756598 0
0.525904 0.749756 0
0.634409 0.741935 0
0.747801 0.731183 0
1 0.550342 0
1 0.336266 0.0723363
0 1 0
0 1 0
0 1 0
0 1 0
0 1 0
0 1 0
0 1 0
0 1 0
0 1 0
0 1 0
0 1 0
0 1 0
0 1 0
0 1 0
0 1 0
1 1 0
1 0.869013 0
0 1 0
0 1 0
0 1 0
0 1 0
0 1 0
0 1 0
0 1 0
0 1 0
0 1 0
0 1 0
0 1 0
0 1 0
0 1 0
0 1 0
0 1 0
0.660802 1 0
1 1 0
0 0 0.0879765
0.00977517 0 0.0860215
0.0488759 0 0.0811339
0.0821114 0 0.0733138
0.117302 0 0.0645161
0.158358 0 0.0635386
0.241447 0 0.0645161
0.330401 0 0.0654936
0.381232 0 0.0664712
0.437928 0 0.0674487
0.502444 0 0.0684262
0.57478 0 0.0703812
0.656892 0 0.0723363
0.747801 0 0.0752688
0.851417 0 0.0791789
1 0 0.110459
1 0 0.124145
0 0.0205279 0.0840665
0 0.0195503 0.083089
0.0469208 0.0146628 0.0791789
0.0801564 0 0.0723363
0.116325 0 0.0645161
0.158358 0 0.0635386
0.241447 0 0.0645161
0.330401 0 0.0654936
0.381232 0 0.0664712
0.437928 0 0.0674487
0.502444 0 0.0684262
0.57478 0 0.0703812
0.656892 0 0.0723363
0.747801 0 0.0752688
0.851417 0 0.0791789
1 0 0.110459
