odm/etc/hdr3dlut_pq_qcom_grid_out_rgb.cube
LUT_3D_SIZE 9
0 0 0
0.0557185 0 0.00391007
0.119257 0 0.00684262
0.241447 0 0.0146628
0.381232 0 0.0224829
0.502444 0 0.030303
0.656892 0 0.0391007
0.851417 0 0.0508309
1 0 0.116325
0 0.0459433 0
0.0439883 0.0430108 0
0.11437 0.0254154 0.00391007
0.240469 0 0.0136852
0.381232 0 0.0224829
0.502444 0 0.0293255
0.656892 0 0.0391007
0.851417 0 0.0508309
1 0 0.116325
0 0.104594 0
0 0.103617 0
0.103617 0.101662 0
0.236559 0.0889541 0
0.378299 0.0459433 0.0166178
0.500489 0 0.0254154
0.655914 0 0.0361681
0.85044 0 0.0488759
1 0 0.116325
0 0.217986 0
0 0.217986 0
0 0.217009 0
0.217009 0.212121 0
0.367546 0.201369 0
0.493646 0.184751 0
0.650049 0.152493 0.0195503
0.845552 0.0459433 0.0391007
1 0 0.11437
0 0.345064 0
0 0.345064 0
0 0.344086 0
0.164223 0.341153 0
0.343109 0.335288 0
0.476051 0.327468 0
0.636364 0.311828 0
0.837732 0.282502 0
1 0 0.109482
0 0.454545 0
0 0.454545 0
0 0.454545 0
0 0.45259 0
0.305963 0.447703 0
0.451613 0.441838 0
0.619746 0.431085 0
0.826002 0.412512 0
1 0 0.102639
0 0.593353 0
0 0.593353 0
0 0.592375 0
0 0.591398 0
0.223851 0.588465 0
0.40567 0.584555 0
0.59042 0.576735 0
0.804497 0.56305 0
1 0 0.0918866
0 0.769306 0
0 0.769306 0
0 0.769306 0
0 0.768328 0
0 0.765396 0
0.304008 0.761486 0
0.525904 0.749756 0
0.747801 0.731183 0
1 0.336266 0.0694037
0 1 0
0 1 0
0 1 0
0 1 0
0 1 0
0 1 0
0 1 0
0 1 0
1 1 0
0 0 0.0576735
0.0537634 0 0.0488759
0.119257 0 0.0381232
0.241447 0 0.0381232
0.381232 0 0.0420332
0.502444 0 0.0459433
0.656892 0 0.0518084
0.851417 0 0.0615836
1 0 0.119257
0 0.0449658 0.0439883
0.0420332 0.0420332 0.0420332
0.113392 0.0244379 0.0361681
0.240469 0 0.0381232
0.380254 0 0.0420332
0.502444 0 0.0459433
0.656892 0 0.0518084
0.851417 0 0.0606061
1 0 0.11828
0 0.104594 0.0332356
0 0.103617 0.0332356
0.103617 0.101662 0.0332356
0.236559 0.0879765 0.0351906
0.378299 0.0459433 0.0391007
0.500489 0 0.0439883
0.655914 0 0.0498534
0.85044 0 0.0596285
1 0 0.11828
0 0.217986 0.0117302
0 0.217986 0.0117302
0 0.217009 0.0127077
0.217009 0.212121 0.0175953
0.367546 0.201369 0.0254154
0.493646 0.184751 0.0322581
0.650049 0.152493 0.0410557
0.845552 0.0459433 0.0518084
1 0 0.116325
0 0.345064 0
0 0.345064 0
0 0.344086 0
0.164223 0.341153 0
0.343109 0.335288 0
0.476051 0.327468 0
0.636364 0.311828 0
0.836755 0.282502 0.028348
1 0 0.111437
0 0.454545 0
0 0.454545 0
0 0.454545 0
0 0.45259 0
0.305963 0.447703 0
0.451613 0.441838 0
0.619746 0.431085 0
0.826002 0.412512 0
1 0 0.105572
0 0.593353 0
0 0.593353 0
0 0.592375 0
0 0.591398 0
0.223851 0.588465 0
0.40567 0.584555 0
0.59042 0.576735 0
0.804497 0.56305 0
1 0 0.0948192
0 0.769306 0
0 0.769306 0
0 0.769306 0
0 0.768328 0
0 0.765396 0
0.304008 0.761486 0
0.525904 0.749756 0
0.747801 0.731183 0
1 0.336266 0.0723363
0 1 0
0 1 0
0 1 0
0 1 0
0 1 0
0 1 0
0 1 0
0 1 0
1 1 0
0 0 0.127077
0.0381232 0 0.12219
0.113392 0 0.102639
0.240469 0 0.102639
0.380254 0 0.103617
0.502444 0 0.104594
0.656892 0 0.107527
0.851417 0 0.111437
1 0 0.136852
0 0.0410557 0.116325
0.028348 0.0381232 0.113392
0.111437 0.0224829 0.100684
0.239492 0 0.102639
0.380254 0 0.103617
0.501466 0 0.104594
0.656892 0 0.107527
0.851417 0 0.111437
1 0 0.135875
0 0.103617 0.100684
0 0.103617 0.100684
0.100684 0.100684 0.100684
0.235582 0.0879765 0.101662
0.378299 0.0449658 0.102639
0.500489 0 0.104594
0.654936 0 0.106549
0.849462 0 0.110459
1 0 0.135875
0 0.217986 0.0967742
0 0.217986 0.0967742
0 0.217009 0.0977517
0.216031 0.212121 0.0977517
0.367546 0.200391 0.0987292
0.492669 0.184751 0.100684
0.650049 0.152493 0.103617
0.845552 0.0449658 0.107527
1 0 0.13392
0 0.345064 0.0889541
0 0.345064 0.0889541
0 0.344086 0.0889541
0.162268 0.341153 0.0889541
0.343109 0.335288 0.0909091
0.476051 0.327468 0.0928641
0.636364 0.311828 0.0948192
0.836755 0.282502 0.0997067
1 0 0.13001
0 0.454545 0.0752688
0 0.454545 0.0752688
0 0.454545 0.0752688
0 0.451613 0.0762463
0.304985 0.447703 0.0782014
0.450635 0.441838 0.0801564
0.619746 0.431085 0.083089
0.826002 0.412512 0.0889541
1 0 0.124145
0 0.593353 0.0400782
0 0.593353 0.0400782
0 0.592375 0.0400782
0 0.591398 0.0420332
0.222874 0.588465 0.0449658
0.40567 0.584555 0.0488759
0.589443 0.576735 0.054741
0.803519 0.56305 0.0635386
1 0 0.115347
0 0.769306 0
0 0.769306 0
0 0.769306 0
0 0.768328 0
0 0.765396 0
0.30303 0.761486 0
0.525904 0.749756 0
0.747801 0.731183 0
1 0.336266 0.0977517
0 1 0
0 1 0
0 1 0
0 1 0
0 1 0
0 1 0
0 1 0
0 1 0
1 1 0
0 0 0.216031
0 0 0.213099
0.102639 0 0.212121
0.236559 0 0.213099
0.378299 0 0.213099
0.500489 0 0.214076
0.654936 0 0.215054
0.85044 0 0.217009
1 0 0.194526
0 0.0273705 0.211144
0 0.026393 0.211144
0.100684 0 0.212121
0.235582 0 0.213099
0.378299 0 0.213099
0.500489 0 0.214076
0.654936 0 0.215054
0.85044 0 0.217009
1 0 0.194526
0 0.102639 0.212121
0 0.101662 0.212121
0.0889541 0.0987292 0.212121
0.231672 0.0860215 0.212121
0.375367 0.0391007 0.213099
0.498534 0 0.214076
0.653959 0 0.215054
0.849462 0 0.217009
1 0 0.193548
0 0.217009 0.210166
0 0.217009 0.210166
0 0.216031 0.211144
0.211144 0.211144 0.211144
0.364614 0.199413 0.211144
0.490714 0.183773 0.212121
0.648094 0.151515 0.214076
0.844575 0.0400782 0.215054
1 0 0.192571
0 0.344086 0.207234
0 0.344086 0.207234
0 0.344086 0.207234
0.155425 0.341153 0.208211
0.340176 0.335288 0.209189
0.474096 0.326491 0.209189
0.635386 0.31085 0.210166
0.835777 0.281525 0.212121
1 0 0.188661
0 0.454545 0.203324
0 0.454545 0.203324
0 0.453568 0.203324
0 0.451613 0.203324
0.302053 0.446725 0.204301
0.44868 0.44086 0.204301
0.618768 0.431085 0.205279
0.825024 0.412512 0.208211
1 0 0.184751
0 0.592375 0.195503
0 0.592375 0.195503
0 0.592375 0.195503
0 0.591398 0.195503
0.217986 0.588465 0.196481
0.402737 0.583578 0.196481
0.588465 0.576735 0.198436
0.803519 0.56305 0.200391
1 0 0.176931
0 0.769306 0.179863
0 0.769306 0.179863
0 0.769306 0.179863
0 0.768328 0.180841
0 0.765396 0.180841
0.300098 0.761486 0.181818
0.523949 0.749756 0.180841
0.745846 0.731183 0.180841
1 0.335288 0.164223
0 1 0
0 1 0
0 1 0
0 1 0
0 1 0
0 1 0
0 1 0
0 1 0
1 1 0
0 0 0.335288
0 0 0.335288
0.0742913 0 0.336266
0.226784 0 0.336266
0.373412 0 0.336266
0.496579 0 0.336266
0.652981 0 0.338221
0.848485 0 0.338221
1 0 0.27566
0 0 0.335288
0 0 0.336266
0.0713587 0 0.336266
0.226784 0 0.335288
0.372434 0 0.336266
0.496579 0 0.336266
0.652981 0 0.338221
0.848485 0 0.338221
1 0 0.27566
0 0.0977517 0.335288
0 0.0977517 0.335288
0.0508309 0.0948192 0.335288
0.221896 0.0801564 0.335288
0.370479 0.0224829 0.336266
0.494624 0 0.336266
0.652004 0 0.338221
0.847507 0 0.338221
1 0 0.27566
0 0.215054 0.334311
0 0.215054 0.334311
0 0.214076 0.334311
0.200391 0.209189 0.335288
0.359726 0.198436 0.335288
0.487781 0.181818 0.336266
0.645161 0.148583 0.337243
0.84262 0.0224829 0.337243
1 0 0.273705
0 0.343109 0.333333
0 0.343109 0.333333
0 0.343109 0.333333
0.139785 0.340176 0.333333
0.334311 0.334311 0.334311
0.470186 0.325513 0.334311
0.632454 0.309873 0.334311
0.833822 0.280547 0.335288
1 0 0.270772
0 0.453568 0.330401
0 0.453568 0.330401
0 0.453568 0.330401
0 0.450635 0.331378
0.29521 0.446725 0.331378
0.44477 0.44086 0.331378
0.615836 0.430108 0.332356
0.823069 0.411535 0.333333
1 0 0.266862
0 0.592375 0.326491
0 0.592375 0.326491
0 0.592375 0.326491
0 0.59042 0.326491
0.208211 0.587488 0.326491
0.397849 0.583578 0.327468
0.585533 0.575758 0.328446
0.800587 0.562072 0.329423
1 0 0.259042
0 0.769306 0.318671
0 0.769306 0.318671
0 0.768328 0.318671
0 0.767351 0.318671
0 0.765396 0.318671
0.293255 0.760508 0.318671
0.520039 0.748778 0.316716
0.743891 0.730205 0.313783
1 0.335288 0.247312
0 1 0
0 1 0
0 1 0
0 1 0
0 1 0
0 1 0
0 1 0
0 1 0
1 1 0
0 0 0.442815
0 0 0.442815
0 0 0.442815
0.214076 0 0.442815
0.366569 0 0.442815
0.491691 0 0.443793
0.650049 0 0.44477
0.845552 0 0.44477
1 0 0.351906
0 0 0.442815
0 0 0.442815
0 0 0.442815
0.214076 0 0.442815
0.365591 0 0.442815
0.491691 0 0.443793
0.649071 0 0.44477
0.845552 0 0.44477
1 0 0.351906
0 0.0918866 0.441838
0 0.0918866 0.441838
0 0.0879765 0.441838
0.209189 0.0723363 0.442815
0.363636 0 0.442815
0.490714 0 0.443793
0.648094 0 0.44477
0.844575 0 0.44477
1 0 0.351906
0 0.213099 0.441838
0 0.213099 0.441838
0 0.212121 0.441838
0.185728 0.207234 0.441838
0.351906 0.195503 0.442815
0.482893 0.178886 0.442815
0.642229 0.144673 0.443793
0.839687 0 0.443793
1 0 0.349951
0 0.342131 0.44086
0 0.342131 0.44086
0 0.341153 0.44086
0.115347 0.339198 0.441838
0.326491 0.332356 0.441838
0.464321 0.324536 0.441838
0.628543 0.307918 0.441838
0.831867 0.27957 0.442815
1 0 0.346041
0 0.45259 0.438905
0 0.45259 0.438905
0 0.45259 0.438905
0 0.449658 0.438905
0.286413 0.445748 0.438905
0.439883 0.438905 0.438905
0.611926 0.42913 0.439883
0.820137 0.410557 0.44086
1 0 0.342131
0 0.591398 0.435973
0 0.591398 0.435973
0 0.591398 0.435973
0 0.59042 0.435973
0.193548 0.58651 0.43695
0.391984 0.5826 0.43695
0.581623 0.575758 0.43695
0.798631 0.562072 0.437928
1 0 0.334311
0 0.768328 0.430108
0 0.768328 0.430108
0 0.768328 0.430108
0 0.767351 0.430108
0 0.764418 0.431085
0.28348 0.758553 0.42913
0.515152 0.747801 0.426197
0.73998 0.729228 0.422287
1 0.334311 0.322581
0 1 0.143695
0 1 0.143695
0 1 0.143695
0 1 0.143695
0 1 0.143695
0 1 0.143695
0 1 0.143695
0 1 0.143695
1 1 0.139785
0 0 0.576735
0 0 0.576735
0 0 0.577713
0.189638 0 0.577713
0.353861 0 0.577713
0.483871 0 0.57869
0.643206 0 0.579668
0.840665 0 0.57869
1 0 0.450635
0 0 0.576735
0 0 0.576735
0 0 0.577713
0.188661 0 0.577713
0.353861 0 0.577713
0.483871 0 0.57869
0.643206 0 0.579668
0.840665 0 0.57869
1 0 0.450635
0 0.0801564 0.576735
0 0.0801564 0.576735
0 0.0762463 0.576735
0.183773 0.0557185 0.577713
0.350929 0 0.577713
0.481916 0 0.57869
0.642229 0 0.579668
0.839687 0 0.57869
1 0 0.449658
0 0.209189 0.576735
0 0.209189 0.576735
0 0.208211 0.576735
0.155425 0.203324 0.577713
0.339198 0.191593 0.577713
0.474096 0.173998 0.57869
0.635386 0.138807 0.57869
0.835777 0 0.57869
1 0 0.447703
0 0.340176 0.576735
0 0.340176 0.576735
0 0.339198 0.576735
0.0371457 0.337243 0.577713
0.311828 0.330401 0.577713
0.455523 0.321603 0.576735
0.622678 0.305963 0.576735
0.826979 0.276637 0.577713
1 0 0.443793
0 0.450635 0.575758
0 0.450635 0.575758
0 0.450635 0.575758
0 0.44868 0.575758
0.268817 0.443793 0.57478
0.42913 0.437928 0.575758
0.605083 0.427175 0.575758
0.815249 0.408602 0.576735
1 0 0.438905
0 0.59042 0.572825
0 0.59042 0.572825
0 0.59042 0.572825
0 0.588465 0.572825
0.1652 0.585533 0.573803
0.380254 0.581623 0.573803
0.57478 0.573803 0.57478
0.793744 0.560117 0.57478
1 0 0.430108
0 0.767351 0.568915
0 0.767351 0.568915
0 0.767351 0.568915
0 0.766373 0.568915
0 0.763441 0.568915
0.265885 0.756598 0.565982
0.506354 0.744868 0.562072
0.734115 0.727273 0.556207
1 0.332356 0.4174
0 1 0.251222
0 1 0.251222
0 1 0.251222
0 1 0.251222
0 1 0.251222
0 1 0.250244
0 1 0.250244
0 1 0.248289
1 1 0.224829
0 0 0.748778
0 0 0.748778
0 0 0.748778
0.13392 0 0.749756
0.331378 0 0.749756
0.468231 0 0.750733
0.632454 0 0.750733
0.832845 0 0.750733
1 0 0.576735
0 0 0.748778
0 0 0.748778
0 0 0.748778
0.132942 0 0.749756
0.331378 0 0.749756
0.468231 0 0.750733
0.631476 0 0.750733
0.832845 0 0.750733
1 0 0.576735
0 0.0527859 0.748778
0 0.0518084 0.748778
0 0.0449658 0.748778
0.124145 0 0.749756
0.328446 0 0.749756
0.466276 0 0.750733
0.630499 0 0.750733
0.831867 0 0.750733
1 0 0.576735
0 0.202346 0.749756
0 0.202346 0.749756
0 0.200391 0.749756
0.0684262 0.195503 0.749756
0.315738 0.182796 0.750733
0.458456 0.1652 0.750733
0.624633 0.1261 0.749756
0.827957 0 0.750733
1 0 0.573803
0 0.336266 0.749756
0 0.336266 0.749756
0 0.335288 0.749756
0 0.332356 0.749756
0.284457 0.325513 0.749756
0.438905 0.316716 0.748778
0.610948 0.301075 0.748778
0.819159 0.270772 0.749756
1 0 0.569892
0 0.447703 0.747801
0 0.447703 0.747801
0 0.447703 0.747801
0 0.445748 0.747801
0.235582 0.44086 0.747801
0.411535 0.434995 0.747801
0.593353 0.424242 0.748778
0.807429 0.40567 0.749756
1 0 0.564027
0 0.588465 0.746823
0 0.588465 0.746823
0 0.588465 0.746823
0 0.58651 0.746823
0.0899316 0.583578 0.746823
0.359726 0.579668 0.746823
0.562072 0.571847 0.747801
0.784946 0.558162 0.746823
1 0 0.553275
0 0.766373 0.742913
0 0.766373 0.742913
0 0.765396 0.742913
0 0.764418 0.742913
0 0.759531 0.73998
0.231672 0.752688 0.737048
0.490714 0.741935 0.73216
0.723363 0.723363 0.723363
1 0.330401 0.537634
0 1 0.362659
0 1 0.362659
0 1 0.361681
0 1 0.361681
0 1 0.361681
0 1 0.360704
0 1 0.359726
0 1 0.356794
1 1 0.317693
0 0 1
0 0 1
0 0 1
0 0 1
0 0 1
0 0 1
0.243402 0 1
0.609971 0 1
1 0 1
0 0 1
0 0 1
0 0 1
0 0 1
0 0 1
0 0 1
0.242424 0 1
0.608993 0 1
1 0 1
0 0 1
0 0 1
0 0 1
0 0 1
0 0 1
0 0 1
0.238514 0 1
0.607038 0 1
1 0 1
0 0 1
0 0 1
0 0 1
0 0 1
0 0 1
0 0 1
0.217986 0 1
0.599218 0 1
1 0 1
0 0.220919 1
0 0.220919 1
0 0.219941 1
0 0.215054 1
0 0.203324 1
0 0.186706 1
0.1652 0.154448 1
0.580645 0.0606061 1
1 0 1
0 0.371457 1
0 0.371457 1
0 0.370479 1
0 0.367546 1
0 0.360704 1
0 0.351906 1
0 0.336266 1
0.552297 0.304985 1
1 0 1
0 0.520039 1
0 0.520039 1
0 0.520039 1
0 0.517107 1
0 0.510264 1
0 0.502444 1
0 0.487781 1
0.505376 0.464321 1
1 0 1
0 0.667644 1
0 0.667644 1
0 0.667644 1
0 0.664712 1
0 0.659824 1
0 0.652981 1
0 0.641251 1
0.426197 0.622678 1
1 0.268817 1
0 1 1
0 1 1
0 1 1
0 1 1
0 1 1
0 1 1
0 1 1
0 1 1
1 0.999022 1
