odm/etc/hdr3dlut_pq_qcom_grid_out_rgb.cube
LUT_3D_SIZE 5
0 0 0
0.119257 0 0.00684262
0.381232 0 0.0224829
0.656892 0 0.0391007
1 0 0.116325
0 0.104594 0
0.103617 0.101662 0
0.378299 0.0459433 0.0166178
0.655914 0 0.0361681
1 0 0.116325
0 0.345064 0
0 0.344086 0
0.343109 0.335288 0
0.636364 0.311828 0
1 0 0.109482
0 0.593353 0
0 0.592375 0
0.223851 0.588465 0
0.59042 0.576735 0
1 0 0.0918866
0 1 0
0 1 0
0 1 0
0 1 0
1 1 0
0 0 0.127077
0.113392 0 0.102639
0.380254 0 0.103617
0.656892 0 0.107527
1 0 0.136852
0 0.103617 0.100684
0.100684 0.100684 0.100684
0.378299 0.0449658 0.102639
0.654936 0 0.106549
1 0 0.135875
0 0.345064 0.0889541
0 0.344086 0.0889541
0.343109 0.335288 0.0909091
0.636364 0.311828 0.0948192
1 0 0.13001
0 0.593353 0.0400782
0 0.592375 0.0400782
0.222874 0.588465 0.0449658
0.589443 0.576735 0.054741
1 0 0.115347
0 1 0
0 1 0
0 1 0
0 1 0
1 1 0
0 0 0.335288
0.0742913 0 0.336266
0.373412 0 0.336266
0.652981 0 0.338221
1 0 0.27566
0 0.0977517 0.335288
0.0508309 0.0948192 0.335288
0.370479 0.0224829 0.336266
0.652004 0 0.338221
1 0 0.27566
0 0.343109 0.333333
0 0.343109 0.333333
0.334311 0.334311 0.334311
0.632454 0.309873 0.334311
1 0 0.270772
0 0.592375 0.326491
0 0.592375 0.326491
0.208211 0.587488 0.326491
0.585533 0.575758 0.328446
1 0 0.259042
0 1 0
0 1 0
0 1 0
0 1 0
1 1 0
0 0 0.576735
0 0 0.577713
0.353861 0 0.577713
0.643206 0 0.579668
1 0 0.450635
0 0.0801564 0.576735
0 0.0762463 0.576735
0.350929 0 0.577713
0.642229 0 0.579668
1 0 0.449658
0 0.340176 0.576735
0 0.339198 0.576735
0.311828 0.330401 0.577713
0.622678 0.305963 0.576735
1 0 0.443793
0 0.59042 0.572825
0 0.59042 0.572825
0.1652 0.585533 0.573803
0.57478 0.573803 0.57478
1 0 0.430108
0 1 0.251222
0 1 0.251222
0 1 0.251222
0 1 0.250244
1 1 0.224829
0 0 1
0 0 1
0 0 1
0.243402 0 1
1 0 1
0 0 1
0 0 1
0 0 1
0.238514 0 1
1 0 1
0 0.220919 1
0 0.219941 1
0 0.203324 1
0.1652 0.154448 1
1 0 1
0 0.520039 1
0 0.520039 1
0 0.510264 1
0 0.487781 1
1 0 1
0 1 1
0 1 1
0 1 1
0 1 1
1 0.999022 1
